X: 38210
T: Springtime Lady
R: polka
M: 2/4
K: Cmajor
ED Bc|DE Bc|d>e dB|c2 c2:|
G>E FA|GE D2|G>E FA|G4|
G>E FA|GE D2|CD/C/ DC|D4||
ec df|ec g2|ec df|e4|
ec df|ec g2|cd cd|c4||

